X: 40353
T: Tom Clancy's
R: reel
M: 4/4
K: Dmajor
D2 FD EFGA|BEGE BEGE|D2 FD EFGA|BGEG FD D2:|
d2 dc dfed|BEGE BEGE|d2 dc dfed|BGEG FDDA|
d2 dc dfed|BEGE BEGE|D2 FD EFGA|BGEG FD D2|

